en/_assets/datalens/code.svg

<svg xmlns="http://www.w3.org/2000/svg" xmlns:xlink="http://www.w3.org/1999/xlink" width="16" height="16" class="yc-icon" fill="currentColor" stroke="none" aria-hidden="true"><svg viewBox="0 0 16 16" fill="none" xmlns="http://www.w3.org/2000/svg"><path d="M6.62891 14.625C6.75586 14.6504 6.85742 14.5996 6.88281 14.498L10.4629 2.18359C10.4883 2.08203 10.4375 1.95508 10.3359 1.92969L9.3457 1.65039C9.24414 1.625 9.11719 1.67578 9.0918 1.77734L5.51172 14.0918C5.48633 14.1934 5.53711 14.3203 5.66406 14.3457L6.62891 14.625ZM4.52148 11.5527L5.20703 10.8164C5.2832 10.7402 5.2832 10.6133 5.20703 10.5371L2.51562 8.125L5.20703 5.73828C5.2832 5.66211 5.2832 5.53516 5.20703 5.45898L4.52148 4.72266C4.44531 4.64648 4.31836 4.62109 4.24219 4.69727L0.738281 7.99805C0.662109 8.07422 0.662109 8.20117 0.738281 8.27734L4.24219 11.5527C4.31836 11.6289 4.44531 11.6289 4.52148 11.5527ZM11.7324 11.5527L15.2363 8.27734C15.3125 8.20117 15.3125 8.07422 15.2363 7.99805L11.7324 4.69727C11.6562 4.62109 11.5293 4.64648 11.4531 4.72266L10.7676 5.45898C10.6914 5.53516 10.6914 5.66211 10.7676 5.73828L13.459 8.125L10.7676 10.5371C10.6914 10.6133 10.6914 10.7402 10.7676 10.8164L11.4531 11.5527C11.5293 11.6289 11.6562 11.6289 11.7324 11.5527Z" fill="currentColor"></path></svg></svg>

<svg xmlns="http://www.w3.org/2000/svg" width="16" height="16" fill="currentColor" aria-hidden="true" class="yc-icon">
    <svg xmlns="http://www.w3.org/2000/svg" fill="none" viewBox="0 0 16 16">
        <path fill="currentColor" d="M6.629 14.625c.127.025.228-.025.254-.127l3.58-12.314c.025-.102-.025-.229-.127-.254l-.99-.28c-.102-.025-.229.026-.254.127l-3.58 12.315c-.026.101.025.228.152.254l.965.279ZM4.52 11.553l.686-.737a.2.2 0 0 0 0-.279l-2.69-2.412 2.691-2.387a.2.2 0 0 0 0-.279l-.686-.736c-.076-.077-.203-.102-.279-.026L.738 7.998a.2.2 0 0 0 0 .28l3.504 3.275a.2.2 0 0 0 .28 0Zm7.211 0 3.504-3.276a.2.2 0 0 0 0-.279l-3.504-3.3c-.076-.077-.203-.052-.279.025l-.685.736a.2.2 0 0 0 0 .28l2.691 2.386-2.691 2.412a.2.2 0 0 0 0 .28l.685.736a.2.2 0 0 0 .28 0Z"/>
    </svg>
</svg>
